X:74
T:Dunphy's Hornpipe 
B:CRE2.301 (CornphÃÂÃÂÃÂÃÂ­opa UÃÂÃÂÃÂÃÂ­ Dhonnchaidh)
F:file ID: cre.2/074dunph
S:Pat Michell (Dublin)
L:1/8
M:C
R:hornpipe
Q:150
K:G
(3DDD|GDBD GBdg|feed ecAG|FADA FADA|BDAD GFED|
GDBD GBdg|feed ecAG|FAdB cAFG|(3ABA GF G2:|
Bc|dcBd gdBd|(3gfg af gdBd|(3gfg fg edcd|(3ege dc d2ef|
(3gfg dc (3BcB G2|ecAG FAD2|GBBD cAFG|(3ABA GF G2:|

%%%

